packages/calcite-ui-icons/icons/shapes-2d-3d-24.svg

<?xml version="1.0" encoding="UTF-8"?><svg id="icons" xmlns="http://www.w3.org/2000/svg" viewBox="0 0 24 24"><defs><style>.cls-1{fill:none;}</style></defs><rect class="cls-1" width="24" height="24"/><path d="M3.00066,7.49999c0-3.03223,2.46777-5.5,5.5-5.5,2.51172,0,4.63135,1.69525,5.28668,4h-1.06311c-.62122-1.74219-2.27063-3-4.22357-3-2.48145,0-4.5,2.01855-4.5,4.5,0,2.26074,1.68091,4.1189,3.85547,4.43488l-.47498.94995c-2.49731-.51868-4.38049-2.73615-4.38049-5.38483ZM12,7v3.52509l1,.99988v-3.52496h8v8h-3.52441l1.00012,1h3.52429V7h-10ZM4.44098,21l5.422-10.84412,6.69073,6.69073-1.03833,4.15338H4.44098ZM11.82507,13.53217l3.01764,6.03534.60358-2.41412-3.62122-3.62122ZM6.05902,20h7.88196l-3.94098-7.88202-3.94098,7.88202Z"/></svg>

<svg xmlns="http://www.w3.org/2000/svg" viewBox="0 0 24 24"><path fill="none" d="M0 0h24v24H0z"/><path d="M3 7.5C3 4.468 5.469 2 8.5 2c2.512 0 4.632 1.695 5.287 4h-1.063c-.621-1.742-2.27-3-4.223-3A4.505 4.505 0 0 0 4 7.5c0 2.26 1.68 4.119 3.855 4.435l-.475.95A5.51 5.51 0 0 1 3.001 7.5zm9-.5v3.525l1 1V8h8v8h-3.524l1 1H22V7H12zM4.441 21l5.422-10.844 6.69 6.69L15.516 21H4.441zm7.384-7.468l3.018 6.036.603-2.415-3.62-3.62zM6.06 20h7.882L10 12.118 6.059 20z"/></svg>
